X: 23342
T: Leire's Welcome To Cozac
R: jig
M: 6/8
K: Adorian
EAA ABc|B2 A2|EAA ABc|de cB|EAA ABc|B2 A2|edc dcB|B2 A2:|
edc dcB|B2 A2|edc dcB|A2 A2|edc dcB|B2 A2|EAA ABc|B2 A2:|
Aff fge|f2 f2|Aff fgf|ed ^cd|Aff fge|f2 f2|fed ed^c|^c2 B2:|

